src/assets/whiteboard_icons/thick_pen.svg

<svg fill="none" height="23" viewBox="0 0 23 23" width="23" xmlns="http://www.w3.org/2000/svg"><path d="m3.50824 6c-.16394 2.35617-.84667 4.6538-1.23273 6.982-.08416.5076-.16753 1.0163-.23362 1.5264-.04158.321-.09589.6888.07953.9859.50042.8474 1.44545-.4121 1.70991-.7835.83586-1.1737 1.57531-2.3765 2.5748-3.4386.37767-.4013.95934-1.0317 1.60801-.9096.57056.1074.41368 1.1955.39516 1.5621-.03486.6904-.14699 1.3741-.20876 2.0622-.02407.2681-.1012.6869.07953.9335.33516.4574 1.36291.2842 1.79193.131.9763-.3486 1.7338-1.1126 2.6021-1.6408.4661-.2835 1.0454-.4566 1.5708-.1905.6165.3124.7388 1.15 1.101 1.667.673.9607 2.048 1.2672 3.1861 1.043.7847-.1546 1.7296-.5028 2.2741-1.0859.2002-.2144.1939-.4374.1939-.7001" stroke="#000" stroke-linecap="round" stroke-width="3"/></svg>

<svg width="23" height="23" viewBox="0 0 23 23" fill="none" xmlns="http://www.w3.org/2000/svg">
<path d="M3.50824 6C3.3443 8.35617 2.66157 10.6538 2.27551 12.982C2.19135 13.4896 2.10798 13.9983 2.04189 14.5084C2.00031 14.8294 1.946 15.1972 2.12142 15.4943C2.62184 16.3417 3.56687 15.0822 3.83133 14.7108C4.66719 13.5371 5.40664 12.3343 6.40613 11.2722C6.7838 10.8709 7.36547 10.2405 8.01414 10.3626C8.5847 10.47 8.42782 11.5581 8.4093 11.9247C8.37444 12.6151 8.26231 13.2988 8.20054 13.9869C8.17647 14.255 8.09934 14.6738 8.28007 14.9204C8.61523 15.3778 9.64298 15.2046 10.072 15.0514C11.0483 14.7028 11.8058 13.9388 12.6741 13.4106C13.1402 13.1271 13.7195 12.954 14.2449 13.2201C14.8614 13.5325 14.9837 14.3701 15.3459 14.8871C16.0189 15.8478 17.3939 16.1543 18.532 15.9301C19.3167 15.7755 20.2616 15.4273 20.8061 14.8442C21.0063 14.6298 21 14.4068 21 14.1441" stroke="black" stroke-width="3" stroke-linecap="round"/>
</svg>
